svgs/sharp-solid/outdent.svg

<svg xmlns="http://www.w3.org/2000/svg" viewBox="0 0 448 512"><!--! Font Awesome Pro 6.6.0 by @fontawesome - https://fontawesome.com License - https://fontawesome.com/license (Commercial License) Copyright 2024 Fonticons, Inc. --><path d="M0 32l448 0 0 64L0 96 0 32zM192 160l256 0 0 64-256 0 0-64zM448 288l0 64-256 0 0-64 256 0zM0 416l448 0 0 64L0 480l0-64zm128-64L0 256l128-96 0 192z"/></svg>

<svg xmlns="http://www.w3.org/2000/svg" viewBox="0 0 448 512"><!--! Font Awesome Pro 6.5.2 by @fontawesome - https://fontawesome.com License - https://fontawesome.com/license (Commercial License) Copyright 2024 Fonticons, Inc. --><path d="M0 32H448V96H0V32zM192 160H448v64H192V160zM448 288v64H192V288H448zM0 416H448v64H0V416zm128-48L-16 256 128 144V368z"/></svg>
